.vercel/output/static/astro-logo-small.svg

<svg width="64" height="79" viewBox="0 0 64 79" fill="none" xmlns="http://www.w3.org/2000/svg">
<path d="M19.9924 65.9282C16.1165 62.432 14.9851 55.0859 16.5999 49.7638C19.3998 53.1193 23.2793 54.1822 27.2977 54.7822C33.5013 55.7081 39.5937 55.3618 45.3565 52.5637C46.0158 52.2434 46.625 51.8174 47.3454 51.386C47.8861 52.9341 48.0268 54.497 47.838 56.0877C47.3787 59.9617 45.4251 62.9542 42.3177 65.2227C41.0752 66.13 39.7604 66.9411 38.4771 67.7967C34.5346 70.4262 33.4679 73.5095 34.9494 77.9946C34.9846 78.1038 35.0161 78.2131 35.0957 78.4797C33.0828 77.5909 31.6124 76.2965 30.4921 74.5946C29.3088 72.7984 28.7458 70.8114 28.7162 68.6615C28.7014 67.6152 28.7014 66.5597 28.5588 65.5282C28.2107 63.0135 27.0144 61.8876 24.7608 61.8227C22.4479 61.7561 20.6183 63.1672 20.1331 65.3893C20.0961 65.5597 20.0424 65.7282 19.9887 65.9263L19.9924 65.9282Z" fill="black"/>
<path d="M0.5 51.3932C0.5 51.3932 11.0979 46.2433 21.7254 46.2433L29.7382 21.5069C30.0381 20.3106 30.9141 19.4977 31.9029 19.4977C32.8918 19.4977 33.7677 20.3106 34.0677 21.5069L42.0804 46.2433C54.6672 46.2433 63.3058 51.3932 63.3058 51.3932C63.3058 51.3932 45.3044 2.47586 45.2692 2.37772C44.7526 0.931458 43.8804 0 42.7045 0H21.1032C19.9273 0 19.0903 0.931458 18.5384 2.37772C18.4995 2.47401 0.5 51.3932 0.5 51.3932Z" fill="black"/>
</svg>

<svg xmlns="http://www.w3.org/2000/svg" width="64" height="79" fill="none" viewBox="0 0 64 79"><path fill="#000" d="M19.992 65.928c-3.876-3.496-5.007-10.842-3.392-16.164 2.8 3.355 6.68 4.418 10.698 5.018 6.203.926 12.296.58 18.058-2.218.66-.32 1.269-.747 1.99-1.178.54 1.548.68 3.111.492 4.702-.46 3.874-2.413 6.866-5.52 9.135-1.243.907-2.558 1.718-3.84 2.574-3.943 2.63-5.01 5.713-3.529 10.198.036.109.067.218.147.485-2.013-.89-3.484-2.184-4.604-3.885-1.183-1.797-1.746-3.784-1.776-5.933-.015-1.047-.015-2.102-.157-3.134-.348-2.515-1.545-3.64-3.798-3.705-2.313-.067-4.143 1.344-4.628 3.566-.037.17-.09.34-.144.537l.003.002Z"/><path fill="#000" d="M.5 51.393s10.598-5.15 21.225-5.15l8.013-24.736c.3-1.196 1.176-2.01 2.165-2.01.989 0 1.865.814 2.165 2.01l8.012 24.736c12.587 0 21.226 5.15 21.226 5.15L45.269 2.378C44.753.93 43.88 0 42.705 0H21.103c-1.176 0-2.013.931-2.565 2.378C18.5 2.474.5 51.393.5 51.393Z"/></svg>
